packages/icons/src/test-verification.svg

<svg height="16" viewBox="0 0 12 16" width="12" xmlns="http://www.w3.org/2000/svg"><path d="m11.7735439 12.3824881-3.35037548-7.50999278v-3.87249532h.42060991c.2670074 0 .48345967-.22385837.48345967-.5 0-.27614259-.21645227-.5-.48345967-.5h-5.66856463c-.2670074 0-.48345967.22385741-.48345967.5 0 .27614163.21645227.5.48345967.5h.41335802v3.87249532l-3.35762741 7.49999278c-.35665845.7911675-.29721909 1.7160379.15754778 2.4514276.45476687.7353898 1.24165809 1.1790951 2.08570509 1.1760843h7.06334578c.84007094-.0011404 1.62178364-.4445398 2.07425254-1.176563s.5134262-1.6519309.1617484-2.4409489zm-.9993735 1.9024558c-.2735443.4492522-.7509144.7196529-1.26226805.7150561h-7.02542328c-.50750249-.0006968-.97970986-.2701905-1.25274231-.7150125-.27303246-.4448219-.30924923-1.003648-.09608126-1.4825374l3.38287836-7.60996782c.02888464-.06591382.04365116-.13756624.04327776-.20999911v-3.98248317h2.87797114v3.98248317c-.0003734.07243287.01439312.14408529.04327776.20999911l3.37566538 7.60996782c.2154251.478448.1790957 1.0384618-.0961728 1.4824938z" fill="#fff"/></svg>

<svg width="12px" height="16px" viewBox="0 0 12 16" version="1.1" xmlns="http://www.w3.org/2000/svg" xmlns:xlink="http://www.w3.org/1999/xlink">
    <g id="TEST" stroke="none" stroke-width="1" fill="none" fill-rule="evenodd">
        <path d="M11.7735439,12.3824881 L8.42316842,4.87249532 L8.42316842,1 L8.84377833,1 C9.11078573,1 9.327238,0.776141629 9.327238,0.5 C9.327238,0.22385741 9.11078573,-2.54019028e-13 8.84377833,-2.54019028e-13 L3.1752137,-2.54019028e-13 C2.9082063,-2.54019028e-13 2.69175403,0.22385741 2.69175403,0.5 C2.69175403,0.776141629 2.9082063,1 3.1752137,1 L3.58857172,1 L3.58857172,4.87249532 L0.230944313,12.3724881 C-0.125714135,13.1636556 -0.0662747816,14.088526 0.388492089,14.8239157 C0.843258959,15.5593055 1.63015018,16.0030108 2.47419718,16 L9.53754296,16 C10.3776139,15.9988596 11.1593266,15.5554602 11.6117955,14.823437 C12.0642644,14.0914138 12.1252217,13.1715061 11.7735439,12.3824881 L11.7735439,12.3824881 Z M10.7741704,14.2849439 C10.5006261,14.7341961 10.023256,15.0045968 9.51190235,15 L2.48647907,15 C1.97897658,14.9993032 1.50676921,14.7298095 1.23373676,14.2849875 C0.960704298,13.8401656 0.92448753,13.2813395 1.1376555,12.8024501 L4.52053386,5.19248228 C4.5494185,5.12656846 4.56418502,5.05491604 4.56381162,4.98248317 L4.56381162,1 L7.44178276,1 L7.44178276,4.98248317 C7.44140936,5.05491604 7.45617588,5.12656846 7.48506052,5.19248228 L10.8607259,12.8024501 C11.076151,13.2808981 11.0398216,13.8409119 10.7645531,14.2849439 L10.7741704,14.2849439 Z" id="Shape" fill="#FFFFFF" fill-rule="nonzero"></path>
    </g>
</svg>
